;START_OF_HEADER
;HEADER_VERSION:0.1
;FLAVOR:Griffin
;GENERATOR.NAME:Cura_SteamEngine
;GENERATOR.VERSION:5.2.1
;GENERATOR.BUILD_DATE:2022-10-19
;TARGET_MACHINE.NAME:Ultimaker 3
;EXTRUDER_TRAIN.0.INITIAL_TEMPERATURE:200
;EXTRUDER_TRAIN.0.MATERIAL.VOLUME_USED:344
;EXTRUDER_TRAIN.0.MATERIAL.GUID:506c9f0d-e3aa-4bd4-b2d2-23e2425b1aa9
;EXTRUDER_TRAIN.0.NOZZLE.DIAMETER:0.4
;EXTRUDER_TRAIN.0.NOZZLE.NAME:AA 0.4
;BUILD_PLATE.INITIAL_TEMPERATURE:60
;PRINT.TIME:889
;PRINT.GROUPS:1
;PRINT.SIZE.MIN.X:9
;PRINT.SIZE.MIN.Y:6
;PRINT.SIZE.MIN.Z:0.27
;PRINT.SIZE.MAX.X:129.521
;PRINT.SIZE.MAX.Y:116.754
;PRINT.SIZE.MAX.Z:8.43
;SLICE_UUID:0acd1cee-0aad-4048-8b60-1794cffd49dc
;END_OF_HEADER
;Generated with Cura_SteamEngine 5.2.1
T0
M82 ;absolute extrusion mode

G92 E0
M109 S200
G0 F15000 X9 Y6 Z2
G280
G1 F1500 E-6.5
;LAYER_COUNT:137
;LAYER:0
M107
M204 S1000
M205 X20 Y20
G1 F600 Z2.27
G0 F5000 X105.704 Y100.406 Z2.27
;TYPE:SKIRT
G1 F600 Z0.27
G1 F1500 E0
G1 F1200 X106.254 Y99.902 E0.01516
G1 X106.854 Y99.459 E0.03031
G1 X107.497 Y99.079 E0.04548
G1 X108.237 Y98.738 E0.06203
G1 X108.944 Y98.5 E0.07719
G1 X109.672 Y98.339 E0.09234
G1 X110.514 Y98.246 E0.10954
G1 X122.33 Y98.246 E0.34959
G1 X123.075 Y98.286 E0.36475
G1 X123.811 Y98.405 E0.37989
G1 X124.53 Y98.603 E0.39505
G1 X125.224 Y98.876 E0.4102
G1 X125.885 Y99.223 E0.42536
G1 X126.578 Y99.682 E0.44225
G1 X127.263 Y100.244 E0.46025
G1 X127.785 Y100.777 E0.4754
G1 X128.247 Y101.362 E0.49055
G1 X128.644 Y101.994 E0.50571
G1 X128.971 Y102.664 E0.52086
G1 X129.224 Y103.366 E0.53602
G1 X129.401 Y104.09 E0.55116
G1 X129.5 Y104.83 E0.56633
G1 X129.521 Y105.376 E0.57743
G1 X129.521 Y109.568 E0.66259
G1 X129.481 Y110.313 E0.67774
G1 X129.362 Y111.049 E0.69289
G1 X129.164 Y111.768 E0.70804
G1 X128.891 Y112.462 E0.72319
G1 X128.544 Y113.123 E0.73836
G1 X128.13 Y113.743 E0.7535
G1 X127.319 Y114.663 E0.77842
G1 X126.611 Y115.28 E0.7975
G1 X126 Y115.707 E0.81264
G1 X125.346 Y116.066 E0.8278
G1 X124.657 Y116.353 E0.84296
G1 X123.942 Y116.564 E0.85811
G1 X123.208 Y116.698 E0.87326
G1 X122.328 Y116.754 E0.89118
G1 X110.863 Y116.754 E1.12409
G1 X110.118 Y116.714 E1.13925
G1 X109.382 Y116.595 E1.1544
G1 X108.663 Y116.397 E1.16955
G1 X108.091 Y116.182 E1.18196
G1 X107.414 Y115.868 E1.19712
G1 X106.774 Y115.485 E1.21227
G1 X106.179 Y115.035 E1.22743
G1 X105.636 Y114.523 E1.24259
G1 X105.151 Y113.957 E1.25773
G1 X104.746 Y113.38 E1.27206
G1 X104.339 Y112.66 E1.28886
G1 X104.043 Y111.975 E1.30402
G1 X103.823 Y111.262 E1.31918
G1 X103.68 Y110.53 E1.33433
G1 X103.613 Y109.565 E1.35398
G1 X103.613 Y105.493 E1.4367
G1 X103.653 Y104.748 E1.45186
G1 X103.772 Y104.012 E1.46701
G1 X103.97 Y103.293 E1.48216
G1 X104.356 Y102.346 E1.50293
G1 X104.783 Y101.577 E1.5208
G1 X105.212 Y100.967 E1.53595
G1 X105.704 Y100.406 E1.55111
G0 F5000 X106.101 Y100.688
G1 F1200 X106.638 Y100.208 E1.56574
G1 X107.224 Y99.791 E1.58035
G1 X107.783 Y99.475 E1.5934
G1 X108.438 Y99.175 E1.60804
G1 X109.121 Y98.949 E1.62265
G1 X109.825 Y98.801 E1.63727
G1 X110.807 Y98.726 E1.65727
G1 X122.33 Y98.726 E1.89137
G1 X123.049 Y98.766 E1.906
G1 X123.758 Y98.885 E1.9206
G1 X124.45 Y99.083 E1.93522
G1 X125.116 Y99.356 E1.94985
G1 X125.748 Y99.701 E1.96448
G1 X126.309 Y100.081 E1.97824
G1 X126.957 Y100.615 E1.9953
G1 X127.458 Y101.132 E2.00992
G1 X127.898 Y101.701 E2.02454
G1 X128.273 Y102.316 E2.03917
G1 X128.577 Y102.968 E2.05379
G1 X128.807 Y103.65 E2.06841
G1 X128.96 Y104.353 E2.08302
G1 X129.041 Y105.376 E2.10387
G1 X129.041 Y109.568 E2.18903
G1 X129.001 Y110.287 E2.20366
G1 X128.882 Y110.996 E2.21827
G1 X128.684 Y111.688 E2.23289
G1 X128.411 Y112.354 E2.24751
G1 X128.066 Y112.986 E2.26214
G1 X127.653 Y113.575 E2.27675
G1 X126.975 Y114.328 E2.29734
G1 X126.296 Y114.917 E2.3156
G1 X125.703 Y115.325 E2.33022
G1 X125.069 Y115.666 E2.34485
G1 X124.401 Y115.933 E2.35946
G1 X123.707 Y116.125 E2.37409
G1 X122.997 Y116.239 E2.3887
G1 X122.328 Y116.274 E2.40231
G1 X110.863 Y116.274 E2.63523
G1 X110.144 Y116.234 E2.64985
G1 X109.435 Y116.115 E2.66446
G1 X108.379 Y115.787 E2.68692
G1 X107.616 Y115.432 E2.70402
G1 X107.001 Y115.058 E2.71864
G1 X106.431 Y114.619 E2.73326
G1 X105.914 Y114.118 E2.74788
G1 X105.455 Y113.564 E2.7625
G1 X105.111 Y113.051 E2.77505
G1 X104.758 Y112.424 E2.78967
G1 X104.476 Y111.761 E2.8043
G1 X104.271 Y111.071 E2.81893
G1 X104.142 Y110.363 E2.83355
G1 X104.093 Y109.565 E2.84979
G1 X104.093 Y105.493 E2.93251
G1 X104.133 Y104.774 E2.94714
G1 X104.252 Y104.065 E2.96175
G1 X104.45 Y103.373 E2.97637
G1 X104.791 Y102.55 E2.99447
G1 X105.203 Y101.81 E3.01167
G1 X105.621 Y101.224 E3.0263
G1 X106.101 Y100.688 E3.04091
G0 F5000 X106.496 Y100.972
G1 F1200 X107.019 Y100.519 E3.05497
G1 X107.929 Y99.934 E3.07695
G1 X108.638 Y99.612 E3.09277
G1 X109.297 Y99.399 E3.10684
G1 X109.976 Y99.264 E3.1209
G1 X110.807 Y99.206 E3.13782
G1 X122.33 Y99.206 E3.37192
G1 X123.021 Y99.246 E3.38598
G1 X123.704 Y99.365 E3.40007
G1 X124.367 Y99.563 E3.41412
G1 X125.004 Y99.835 E3.42819
G1 X125.985 Y100.434 E3.45154
G1 X126.65 Y100.986 E3.4691
G1 X127.129 Y101.486 E3.48317
G1 X127.547 Y102.038 E3.49724
G1 X127.898 Y102.635 E3.5113
G1 X128.179 Y103.268 E3.52537
G1 X128.384 Y103.93 E3.53945
G1 X128.512 Y104.61 E3.55351
G1 X128.561 Y105.376 E3.5691
G1 X128.561 Y109.568 E3.65427
G1 X128.521 Y110.259 E3.66833
G1 X128.402 Y110.942 E3.68241
G1 X128.204 Y111.605 E3.69647
G1 X127.932 Y112.242 E3.71054
G1 X127.588 Y112.843 E3.72461
G1 X127.177 Y113.401 E3.73869
G1 X126.624 Y113.998 E3.75522
G1 X125.981 Y114.554 E3.77249
G1 X125.409 Y114.943 E3.78654
G1 X124.795 Y115.263 E3.80061
G1 X124.148 Y115.511 E3.81468
G1 X123.477 Y115.683 E3.82876
G1 X122.658 Y115.794 E3.84555
G1 X110.863 Y115.794 E4.08517
G1 X110.172 Y115.754 E4.09923
G1 X109.489 Y115.635 E4.11331
G1 X108.554 Y115.34 E4.13323
G1 X107.819 Y114.997 E4.14971
G1 X107.23 Y114.633 E4.16377
G1 X106.686 Y114.204 E4.17785
G1 X106.196 Y113.715 E4.19191
G1 X105.566 Y112.885 E4.21308
G1 X105.177 Y112.188 E4.2293
G1 X104.911 Y111.549 E4.24336
G1 X104.72 Y110.883 E4.25743
G1 X104.607 Y110.2 E4.2715
G1 X104.573 Y109.565 E4.28442
G1 X104.573 Y105.493 E4.36714
G1 X104.613 Y104.802 E4.3812
G1 X104.732 Y104.119 E4.39529
G1 X104.93 Y103.456 E4.40934
G1 X105.226 Y102.752 E4.42486
G1 X105.623 Y102.044 E4.44135
G1 X106.028 Y101.483 E4.45541
G1 X106.496 Y100.972 E4.46948
G0 F5000 X106.89 Y101.26
G1 F1200 X107.399 Y100.834 E4.48297
G1 X108.158 Y100.357 E4.50118
G1 X108.836 Y100.05 E4.5163
G1 X109.47 Y99.85 E4.5298
G1 X110.123 Y99.729 E4.5433
G1 X110.807 Y99.686 E4.55722
G1 X122.33 Y99.686 E4.79131
G1 X122.993 Y99.726 E4.80481
G1 X123.646 Y99.845 E4.81829
G1 X124.281 Y100.042 E4.8318
G1 X124.887 Y100.314 E4.84529
G1 X125.709 Y100.827 E4.86498
G1 X126.343 Y101.355 E4.88174
G1 X126.799 Y101.839 E4.89525
G1 X127.193 Y102.373 E4.90873
G1 X127.52 Y102.951 E4.92222
G1 X127.775 Y103.565 E4.93573
G1 X127.955 Y104.204 E4.94921
G1 X128.057 Y104.86 E4.9627
G1 X128.081 Y105.376 E4.9732
G1 X128.081 Y109.568 E5.05836
G1 X128.041 Y110.231 E5.07185
G1 X127.922 Y110.884 E5.08534
G1 X127.725 Y111.519 E5.09884
G1 X127.453 Y112.125 E5.11234
G1 X127.111 Y112.694 E5.12582
G1 X126.702 Y113.218 E5.13933
G1 X126.171 Y113.756 E5.15468
G1 X125.668 Y114.189 E5.16817
G1 X125.115 Y114.559 E5.18169
G1 X124.523 Y114.859 E5.19517
G1 X123.899 Y115.086 E5.20866
G1 X123.252 Y115.236 E5.22215
G1 X122.328 Y115.314 E5.24099
G1 X110.863 Y115.314 E5.4739
G1 X110.2 Y115.274 E5.4874
G1 X109.547 Y115.155 E5.50088
G1 X108.726 Y114.891 E5.5184
G1 X108.023 Y114.561 E5.53418
G1 X107.461 Y114.208 E5.54766
G1 X106.945 Y113.79 E5.56115
G1 X106.482 Y113.313 E5.57466
G1 X105.967 Y112.619 E5.59221
G1 X105.597 Y111.954 E5.60767
G1 X105.346 Y111.339 E5.62117
G1 X105.171 Y110.698 E5.63467
G1 X105.053 Y109.899 E5.65108
G1 X105.053 Y105.493 E5.74059
G1 X105.093 Y104.83 E5.75408
G1 X105.212 Y104.177 E5.76756
G1 X105.409 Y103.542 E5.78107
G1 X105.665 Y102.95 E5.79417
G1 X106.042 Y102.28 E5.80979
G1 X106.435 Y101.744 E5.82329
G1 X106.89 Y101.26 E5.83679
G0 F5000 X107.281 Y101.551
G1 F1200 X107.776 Y101.154 E5.84968
G1 X108.388 Y100.778 E5.86427
G1 X109.034 Y100.488 E5.87866
G1 X109.641 Y100.303 E5.89155
G1 X110.267 Y100.195 E5.90445
G1 X110.807 Y100.166 E5.91544
G1 X122.33 Y100.166 E6.14953
G1 X122.963 Y100.206 E6.16242
G1 X123.587 Y100.325 E6.17533
G1 X124.19 Y100.522 E6.18821
G1 X124.764 Y100.793 E6.20111
G1 X125.435 Y101.222 E6.21729
G1 X126.035 Y101.724 E6.23318
G1 X126.466 Y102.19 E6.24608
G1 X126.836 Y102.706 E6.25898
G1 X127.137 Y103.264 E6.27186
G1 X127.366 Y103.856 E6.28475
G1 X127.519 Y104.472 E6.29764
G1 X127.601 Y105.376 E6.31609
G1 X127.601 Y109.568 E6.40125
G1 X127.561 Y110.201 E6.41413
G1 X127.442 Y110.825 E6.42704
G1 X127.245 Y111.428 E6.43993
G1 X126.974 Y112.002 E6.45282
G1 X126.633 Y112.537 E6.46571
G1 X125.98 Y113.29 E6.48596
G1 X125.355 Y113.824 E6.50266
G1 X124.824 Y114.172 E6.51556
G1 X124.254 Y114.451 E6.52845
G1 X123.653 Y114.657 E6.54136
G1 X123.032 Y114.785 E6.55424
G1 X122.328 Y114.834 E6.56857
G1 X110.863 Y114.834 E6.80149
G1 X110.23 Y114.794 E6.81437
G1 X109.606 Y114.675 E6.82728
G1 X108.896 Y114.443 E6.84245
G1 X108.229 Y114.126 E6.85746
G1 X107.694 Y113.785 E6.87035
G1 X107.206 Y113.378 E6.88326
G1 X106.774 Y112.914 E6.89613
G1 X106.367 Y112.353 E6.91022
G1 X106.017 Y111.721 E6.92489
G1 X105.783 Y111.131 E6.93779
G1 X105.624 Y110.517 E6.95067
G1 X105.533 Y109.809 E6.96517
G1 X105.533 Y105.493 E7.05285
G1 X105.573 Y104.86 E7.06574
G1 X105.692 Y104.236 E7.07864
G1 X105.889 Y103.633 E7.09153
G1 X106.148 Y103.069 E7.10414
G1 X106.461 Y102.516 E7.11705
G1 X106.84 Y102.008 E7.12993
G1 X107.281 Y101.551 E7.14283
G0 F5000 X107.671 Y101.847
G1 F1200 X108.15 Y101.479 E7.1551
G1 X108.679 Y101.173 E7.16751
G1 X109.231 Y100.927 E7.17979
G1 X109.81 Y100.756 E7.19206
G1 X110.523 Y100.646 E7.20671
G1 X122.33 Y100.646 E7.44658
G1 X122.932 Y100.686 E7.45883
G1 X123.524 Y100.805 E7.4711
G1 X124.095 Y101.001 E7.48337
G1 X124.635 Y101.271 E7.49563
G1 X125.264 Y101.703 E7.51113
G1 X125.725 Y102.093 E7.5234
G1 X126.131 Y102.539 E7.53565
G1 X126.475 Y103.036 E7.54793
G1 X126.749 Y103.573 E7.56018
G1 X126.951 Y104.142 E7.57245
G1 X127.075 Y104.733 E7.58471
G1 X127.121 Y105.376 E7.59781
G1 X127.121 Y109.568 E7.68297
G1 X127.081 Y110.17 E7.69523
G1 X126.962 Y110.762 E7.7075
G1 X126.766 Y111.333 E7.71976
G1 X126.496 Y111.873 E7.73203
G1 X126.157 Y112.372 E7.74428
G1 X125.63 Y112.959 E7.76031
G1 X125.043 Y113.458 E7.77596
G1 X124.535 Y113.784 E7.78822
G1 X123.989 Y114.041 E7.80048
G1 X123.413 Y114.223 E7.81275
G1 X122.671 Y114.354 E7.82806
G1 X110.863 Y114.354 E8.06794
G1 X110.261 Y114.314 E8.0802
G1 X109.669 Y114.195 E8.09247
G1 X109.067 Y113.993 E8.10537
G1 X108.436 Y113.692 E8.11957
G1 X107.93 Y113.362 E8.13184
G1 X107.473 Y112.968 E8.1441
G1 X107.071 Y112.517 E8.15637
G1 X106.729 Y112.018 E8.16866
G1 X106.439 Y111.489 E8.18092
G1 X106.221 Y110.926 E8.19319
G1 X106.079 Y110.339 E8.20545
G1 X106.013 Y109.565 E8.22124
G1 X106.013 Y105.493 E8.30396
G1 X106.053 Y104.891 E8.31622
G1 X106.172 Y104.299 E8.32848
G1 X106.508 Y103.404 E8.34791
G1 X106.879 Y102.754 E8.36311
G1 X107.245 Y102.274 E8.37537
G1 X107.671 Y101.847 E8.38763
G0 F5000 X108.058 Y102.147
G1 F1200 X108.683 Y101.694 E8.40331
G1 X109.426 Y101.367 E8.4198
G1 X109.975 Y101.212 E8.43139
G1 X110.807 Y101.126 E8.44838
G1 X122.33 Y101.126 E8.68248
G1 X122.9 Y101.166 E8.69408
G1 X123.458 Y101.285 E8.70567
G1 X123.994 Y101.481 E8.71727
G1 X124.498 Y101.75 E8.72888
G1 X124.979 Y102.09 E8.74084
G1 X125.414 Y102.46 E8.75244
G1 X125.794 Y102.887 E8.76406
G1 X126.109 Y103.362 E8.77563
G1 X126.356 Y103.877 E8.78724
G1 X126.528 Y104.422 E8.79885
G1 X126.641 Y105.099 E8.81279
G1 X126.641 Y109.568 E8.90358
G1 X126.601 Y110.138 E8.91519
G1 X126.482 Y110.696 E8.92678
G1 X126.286 Y111.232 E8.93837
G1 X126.017 Y111.736 E8.94998
G1 X125.681 Y112.197 E8.96157
G1 X125.169 Y112.723 E8.97648
G1 X124.732 Y113.091 E8.98809
G1 X124.248 Y113.394 E8.99969
G1 X123.727 Y113.627 E9.01128
G1 X123.178 Y113.784 E9.02288
G1 X122.328 Y113.874 E9.04025
G1 X110.863 Y113.874 E9.27316
G1 X110.293 Y113.834 E9.28477
G1 X109.735 Y113.715 E9.29636
G1 X109.158 Y113.507 E9.30882
G1 X108.644 Y113.258 E9.32043
G1 X108.169 Y112.941 E9.33203
G1 X107.744 Y112.56 E9.34362
G1 X107.185 Y111.854 E9.36192
G1 X106.861 Y111.258 E9.3757
G1 X106.661 Y110.723 E9.3873
G1 X106.538 Y110.166 E9.39889
G1 X106.493 Y109.565 E9.41114
G1 X106.493 Y105.493 E9.49386
G1 X106.533 Y104.923 E9.50547
G1 X106.652 Y104.365 E9.51706
G1 X106.943 Y103.606 E9.53357
G1 X107.296 Y102.994 E9.54793
G1 X107.647 Y102.544 E9.55952
G1 X108.058 Y102.147 E9.57113
G0 F5000 X108.442 Y102.453
G1 F1200 X109.054 Y102.054 E9.58597
G1 X109.619 Y101.808 E9.59849
G1 X110.137 Y101.669 E9.60938
G1 X110.807 Y101.606 E9.62306
G1 X122.33 Y101.606 E9.85715
G1 X122.865 Y101.646 E9.86805
G1 X123.388 Y101.765 E9.87895
G1 X123.887 Y101.96 E9.88983
G1 X124.574 Y102.373 E9.90611
G1 X125.102 Y102.826 E9.92025
G1 X125.453 Y103.231 E9.93114
G1 X125.739 Y103.685 E9.94204
G1 X125.955 Y104.176 E9.95293
G1 X126.096 Y104.693 E9.96382
G1 X126.161 Y105.376 E9.97776
G1 X126.161 Y109.568 E10.06292
G1 X126.121 Y110.103 E10.07382
G1 X126.002 Y110.626 E10.08472
G1 X125.807 Y111.125 E10.0956
G1 X125.539 Y111.59 E10.1065
G1 X124.979 Y112.256 E10.12418
G1 X124.423 Y112.722 E10.13892
G1 X123.965 Y113 E10.1498
G1 X123.47 Y113.208 E10.16071
G1 X122.95 Y113.34 E10.17161
G1 X122.328 Y113.394 E10.18429
G1 X110.863 Y113.394 E10.41721
G1 X110.328 Y113.354 E10.42811
G1 X109.805 Y113.235 E10.43901
G1 X109.336 Y113.061 E10.44917
G1 X108.854 Y112.825 E10.46007
G1 X108.412 Y112.521 E10.47097
G1 X108.021 Y112.155 E10.48185
G1 X107.584 Y111.588 E10.49639
G1 X107.284 Y111.029 E10.50928
G1 X107.103 Y110.525 E10.52016
G1 X106.973 Y109.866 E10.53381
G1 X106.973 Y105.493 E10.62265
G1 X107.013 Y104.958 E10.63354
G1 X107.132 Y104.435 E10.64444
G1 X107.38 Y103.806 E10.65818
G1 X107.712 Y103.235 E10.67159
G1 X108.048 Y102.817 E10.68249
G1 X108.442 Y102.453 E10.69339
G0 F5000 X108.823 Y102.766
G1 F1200 X109.578 Y102.309 E10.71132
G1 X110.294 Y102.128 E10.72632
G1 X110.807 Y102.086 E10.73678
G1 X122.665 Y102.086 E10.97768
G1 X123.312 Y102.245 E10.99121
G1 X123.772 Y102.439 E11.00135
G1 X124.643 Y103.018 E11.0226
G1 X125.107 Y103.573 E11.0373
G1 X125.546 Y104.467 E11.05753
G1 X125.681 Y105.089 E11.07046
G1 X125.681 Y109.903 E11.16826
G1 X125.522 Y110.55 E11.1818
G1 X125.328 Y111.01 E11.19194
G1 X125.062 Y111.433 E11.20209
G1 X124.5 Y112.034 E11.2188
G1 X123.685 Y112.604 E11.23901
G1 X123.219 Y112.784 E11.24916
G1 X122.609 Y112.914 E11.26183
G1 X110.51 Y112.914 E11.50762
G1 X109.707 Y112.692 E11.52455
G1 X109.066 Y112.393 E11.53892
G1 X108.305 Y111.752 E11.55913
G1 X107.782 Y111.017 E11.57746
G1 X107.548 Y110.33 E11.5922
G1 X107.453 Y109.767 E11.6038
G1 X107.453 Y105.158 E11.69744
G1 X107.612 Y104.511 E11.71097
G1 X107.987 Y103.648 E11.73009
G1 X108.447 Y103.094 E11.74472
G1 X108.823 Y102.766 E11.75485
G0 F5000 X109.199 Y103.088
G1 F1200 X109.998 Y102.693 E11.77296
G1 X110.556 Y102.566 E11.78459
G1 X122.636 Y102.566 E12.03
G1 X123.231 Y102.724 E12.0425
G1 X123.647 Y102.918 E12.05183
G1 X124.357 Y103.41 E12.06938
G1 X124.757 Y103.911 E12.0824
G1 X124.978 Y104.314 E12.09174
G1 X125.125 Y104.749 E12.10107
G1 X125.201 Y105.376 E12.1139
G1 X125.201 Y109.874 E12.20528
G1 X125.043 Y110.469 E12.21778
G1 X124.586 Y111.262 E12.23638
G1 X123.967 Y111.891 E12.2543
G1 X123.409 Y112.203 E12.26729
G1 X122.975 Y112.353 E12.27662
G1 X122.328 Y112.434 E12.28987
G1 X110.547 Y112.434 E12.5292
G1 X109.885 Y112.246 E12.54318
G1 X109.282 Y111.962 E12.55672
G1 X108.914 Y111.688 E12.56604
G1 X108.599 Y111.354 E12.57537
G1 X108.135 Y110.578 E12.59374
G1 X107.996 Y110.14 E12.60308
G1 X107.933 Y109.565 E12.61483
G1 X107.933 Y105.187 E12.70377
G1 X108.091 Y104.592 E12.71627
G1 X108.421 Y103.863 E12.73253
G1 X108.842 Y103.377 E12.74559
G1 X109.199 Y103.088 E12.75492
G0 F5000 X109.672 Y103.363
G1 F1200 X110.183 Y103.138 E12.76627
G1 X110.645 Y103.046 E12.77584
G1 X122.608 Y103.046 E13.01887
G1 X123.141 Y103.204 E13.03016
G1 X123.61 Y103.466 E13.04108
G1 X124.15 Y103.913 E13.05532
G1 X124.401 Y104.245 E13.06377
