;START_OF_HEADER
;HEADER_VERSION:0.1
;FLAVOR:Griffin
;GENERATOR.NAME:Cura_SteamEngine
;GENERATOR.VERSION:5.2.1
;GENERATOR.BUILD_DATE:2022-10-19
;TARGET_MACHINE.NAME:Ultimaker 3
;EXTRUDER_TRAIN.0.INITIAL_TEMPERATURE:205
;EXTRUDER_TRAIN.0.MATERIAL.VOLUME_USED:4373
;EXTRUDER_TRAIN.0.MATERIAL.GUID:506c9f0d-e3aa-4bd4-b2d2-23e2425b1aa9
;EXTRUDER_TRAIN.0.NOZZLE.DIAMETER:0.4
;EXTRUDER_TRAIN.0.NOZZLE.NAME:AA 0.4
;BUILD_PLATE.INITIAL_TEMPERATURE:60
;PRINT.TIME:3789
;PRINT.GROUPS:1
;PRINT.SIZE.MIN.X:9
;PRINT.SIZE.MIN.Y:6
;PRINT.SIZE.MIN.Z:0.27
;PRINT.SIZE.MAX.X:162.017
;PRINT.SIZE.MAX.Y:132.45
;PRINT.SIZE.MAX.Z:3.77
;SLICE_UUID:9c7cd855-d755-4054-9c8a-9877563d5d04
;END_OF_HEADER
;Generated with Cura_SteamEngine 5.2.1
T0
M82 ;absolute extrusion mode

G92 E0
M109 S205
G0 F15000 X9 Y6 Z2
G280
G1 F1500 E-6.5
;LAYER_COUNT:16
;LAYER:0
M107
M204 S1000
M205 X20 Y20
G1 F600 Z2.27
G0 F4285.7 X81.524 Y84.245 Z2.27
;TYPE:SKIRT
G1 F600 Z0.27
G1 F1500 E0
G1 F1200 X82.114 Y83.788 E0.01516
G1 X82.749 Y83.397 E0.03031
G1 X83.422 Y83.076 E0.04546
G1 X84.126 Y82.829 E0.06062
G1 X84.852 Y82.659 E0.07576
G1 X85.73 Y82.55 E0.09374
G1 X147.057 Y82.55 E1.33962
G1 X147.802 Y82.59 E1.35478
G1 X148.538 Y82.709 E1.36992
G1 X149.257 Y82.907 E1.38507
G1 X149.951 Y83.18 E1.40022
G1 X150.612 Y83.527 E1.41539
G1 X151.232 Y83.941 E1.43054
G1 X151.804 Y84.42 E1.44569
G1 X152.322 Y84.957 E1.46085
G1 X152.779 Y85.547 E1.47601
G1 X153.17 Y86.182 E1.49116
G1 X153.491 Y86.855 E1.50631
G1 X153.738 Y87.559 E1.52147
G1 X153.908 Y88.285 E1.53661
G1 X154.017 Y89.163 E1.55459
G1 X154.017 Y96.55 E1.70466
G1 X155.057 Y96.55 E1.72579
G1 X155.802 Y96.59 E1.74094
G1 X156.538 Y96.709 E1.75609
G1 X157.257 Y96.907 E1.77124
G1 X157.951 Y97.18 E1.78639
G1 X158.612 Y97.527 E1.80156
G1 X159.232 Y97.941 E1.8167
G1 X159.804 Y98.42 E1.83186
G1 X160.322 Y98.957 E1.84702
G1 X160.779 Y99.547 E1.86218
G1 X161.17 Y100.182 E1.87733
G1 X161.491 Y100.855 E1.89247
G1 X161.738 Y101.559 E1.90763
G1 X161.908 Y102.285 E1.92278
G1 X162.017 Y103.163 E1.94075
G1 X162.017 Y111.49 E2.10992
G1 X161.977 Y112.235 E2.12508
G1 X161.858 Y112.971 E2.14022
G1 X161.66 Y113.69 E2.15537
G1 X161.387 Y114.384 E2.17052
G1 X161.04 Y115.045 E2.18569
G1 X160.626 Y115.665 E2.20084
G1 X160.147 Y116.237 E2.21599
G1 X159.61 Y116.755 E2.23115
G1 X159.02 Y117.212 E2.24631
G1 X158.385 Y117.603 E2.26146
G1 X157.712 Y117.924 E2.27661
G1 X157.008 Y118.171 E2.29177
G1 X156.282 Y118.341 E2.30691
G1 X155.404 Y118.45 E2.32489
G1 X154.017 Y118.45 E2.35306
G1 X154.017 Y125.49 E2.49609
G1 X153.977 Y126.235 E2.51124
G1 X153.858 Y126.971 E2.52639
G1 X153.66 Y127.69 E2.54154
G1 X153.387 Y128.384 E2.55669
G1 X153.04 Y129.045 E2.57186
G1 X152.626 Y129.665 E2.587
G1 X152.147 Y130.237 E2.60216
G1 X151.61 Y130.755 E2.61732
G1 X151.02 Y131.212 E2.63248
G1 X150.385 Y131.603 E2.64763
G1 X149.712 Y131.924 E2.66277
G1 X149.008 Y132.171 E2.67793
G1 X148.282 Y132.341 E2.69308
G1 X147.404 Y132.45 E2.71105
G1 X86.077 Y132.45 E3.95694
G1 X85.332 Y132.41 E3.97209
G1 X84.596 Y132.291 E3.98724
G1 X83.877 Y132.093 E4.00239
G1 X83.183 Y131.82 E4.01754
G1 X82.522 Y131.473 E4.03271
G1 X81.902 Y131.059 E4.04785
G1 X81.33 Y130.58 E4.06301
G1 X80.812 Y130.043 E4.07817
G1 X80.355 Y129.453 E4.09333
G1 X79.964 Y128.818 E4.10848
G1 X79.643 Y128.145 E4.12362
G1 X79.396 Y127.441 E4.13878
G1 X79.226 Y126.715 E4.15393
G1 X79.117 Y125.837 E4.1719
G1 X79.117 Y118.45 E4.32197
G1 X78.077 Y118.45 E4.3431
G1 X77.332 Y118.41 E4.35826
G1 X76.596 Y118.291 E4.3734
G1 X75.877 Y118.093 E4.38855
G1 X75.183 Y117.82 E4.40371
G1 X74.522 Y117.473 E4.41887
G1 X73.902 Y117.059 E4.43402
G1 X73.33 Y116.58 E4.44917
G1 X72.812 Y116.043 E4.46433
G1 X72.355 Y115.453 E4.47949
G1 X71.964 Y114.818 E4.49464
G1 X71.643 Y114.145 E4.50979
G1 X71.396 Y113.441 E4.52495
G1 X71.226 Y112.715 E4.5401
G1 X71.117 Y111.837 E4.55807
G1 X71.117 Y103.51 E4.72724
G1 X71.157 Y102.765 E4.74239
G1 X71.276 Y102.029 E4.75754
G1 X71.474 Y101.31 E4.77269
G1 X71.747 Y100.616 E4.78784
G1 X72.094 Y99.955 E4.80301
G1 X72.508 Y99.335 E4.81815
G1 X72.987 Y98.763 E4.83331
G1 X73.524 Y98.245 E4.84847
G1 X74.114 Y97.788 E4.86363
G1 X74.749 Y97.397 E4.87878
G1 X75.422 Y97.076 E4.89392
G1 X76.126 Y96.829 E4.90908
G1 X76.852 Y96.659 E4.92423
G1 X77.73 Y96.55 E4.9422
G1 X79.117 Y96.55 E4.97038
G1 X79.117 Y89.51 E5.1134
G1 X79.157 Y88.765 E5.12856
G1 X79.276 Y88.029 E5.1437
G1 X79.474 Y87.31 E5.15885
G1 X79.747 Y86.616 E5.174
G1 X80.094 Y85.955 E5.18917
G1 X80.508 Y85.335 E5.20432
G1 X80.987 Y84.763 E5.21947
G1 X81.524 Y84.245 E5.23463
G0 F4285.7 X81.993 Y84.479
G1 F1200 X82.577 Y84.057 E5.24927
G1 X83.203 Y83.702 E5.26389
G1 X83.865 Y83.419 E5.27851
G1 X84.554 Y83.212 E5.29313
G1 X85.262 Y83.082 E5.30775
G1 X86.077 Y83.03 E5.32434
G1 X147.057 Y83.03 E6.56318
G1 X147.776 Y83.07 E6.57781
G1 X148.485 Y83.189 E6.59241
G1 X149.177 Y83.387 E6.60703
G1 X149.843 Y83.66 E6.62166
G1 X150.475 Y84.005 E6.63629
G1 X151.064 Y84.418 E6.6509
G1 X151.604 Y84.894 E6.66552
G1 X152.088 Y85.426 E6.68013
G1 X152.51 Y86.01 E6.69477
G1 X152.865 Y86.636 E6.70939
G1 X153.148 Y87.298 E6.72402
G1 X153.355 Y87.987 E6.73863
G1 X153.485 Y88.695 E6.75326
G1 X153.537 Y89.51 E6.76985
G1 X153.537 Y97.03 E6.92262
G1 X155.057 Y97.03 E6.9535
G1 X155.776 Y97.07 E6.96813
G1 X156.485 Y97.189 E6.98273
G1 X157.177 Y97.387 E6.99736
G1 X157.843 Y97.66 E7.01198
G1 X158.475 Y98.005 E7.02661
G1 X159.064 Y98.418 E7.04122
G1 X159.604 Y98.894 E7.05584
G1 X160.088 Y99.426 E7.07046
G1 X160.51 Y100.01 E7.08509
G1 X160.865 Y100.636 E7.09971
G1 X161.148 Y101.298 E7.11434
G1 X161.355 Y101.987 E7.12896
G1 X161.485 Y102.695 E7.14358
G1 X161.537 Y103.51 E7.16017
G1 X161.537 Y111.49 E7.32229
G1 X161.497 Y112.209 E7.33692
G1 X161.378 Y112.918 E7.35152
G1 X161.18 Y113.61 E7.36614
G1 X160.907 Y114.276 E7.38077
G1 X160.562 Y114.908 E7.39539
G1 X160.149 Y115.497 E7.41001
G1 X159.673 Y116.037 E7.42463
G1 X159.141 Y116.521 E7.43924
G1 X158.557 Y116.943 E7.45388
G1 X157.931 Y117.298 E7.4685
G1 X157.269 Y117.581 E7.48313
G1 X156.58 Y117.788 E7.49774
G1 X155.872 Y117.918 E7.51237
G1 X155.057 Y117.97 E7.52896
G1 X153.537 Y117.97 E7.55984
G1 X153.537 Y125.49 E7.71261
G1 X153.497 Y126.209 E7.72724
G1 X153.378 Y126.918 E7.74184
G1 X153.18 Y127.61 E7.75647
G1 X152.907 Y128.276 E7.77109
G1 X152.562 Y128.908 E7.78572
G1 X152.149 Y129.497 E7.80033
G1 X151.673 Y130.037 E7.81495
G1 X151.141 Y130.521 E7.82956
G1 X150.557 Y130.943 E7.8442
G1 X149.931 Y131.298 E7.85882
G1 X149.269 Y131.581 E7.87345
G1 X148.58 Y131.788 E7.88806
G1 X147.872 Y131.918 E7.90269
G1 X147.057 Y131.97 E7.91928
G1 X86.077 Y131.97 E9.15811
G1 X85.358 Y131.93 E9.17274
G1 X84.649 Y131.811 E9.18735
G1 X83.957 Y131.613 E9.20197
G1 X83.291 Y131.34 E9.21659
G1 X82.659 Y130.995 E9.23122
G1 X82.07 Y130.582 E9.24583
G1 X81.53 Y130.106 E9.26046
G1 X81.046 Y129.574 E9.27507
G1 X80.624 Y128.99 E9.28971
G1 X80.269 Y128.364 E9.30433
G1 X79.986 Y127.702 E9.31895
G1 X79.779 Y127.013 E9.33357
G1 X79.649 Y126.305 E9.34819
G1 X79.597 Y125.49 E9.36478
G1 X79.597 Y117.97 E9.51755
G1 X78.077 Y117.97 E9.54843
G1 X77.358 Y117.93 E9.56306
G1 X76.649 Y117.811 E9.57767
G1 X75.957 Y117.613 E9.59229
G1 X75.291 Y117.34 E9.60691
G1 X74.659 Y116.995 E9.62154
G1 X74.07 Y116.582 E9.63615
G1 X73.53 Y116.106 E9.65078
G1 X73.046 Y115.574 E9.66539
G1 X72.624 Y114.99 E9.68003
G1 X72.269 Y114.364 E9.69465
G1 X71.986 Y113.702 E9.70927
G1 X71.779 Y113.013 E9.72389
G1 X71.649 Y112.305 E9.73851
G1 X71.597 Y111.49 E9.7551
G1 X71.597 Y103.51 E9.91722
G1 X71.637 Y102.791 E9.93185
G1 X71.756 Y102.082 E9.94645
G1 X71.954 Y101.39 E9.96108
G1 X72.227 Y100.724 E9.9757
G1 X72.572 Y100.092 E9.99033
G1 X72.985 Y99.503 E10.00494
G1 X73.461 Y98.963 E10.01957
G1 X73.993 Y98.479 E10.03418
G1 X74.577 Y98.057 E10.04881
G1 X75.203 Y97.702 E10.06343
G1 X75.865 Y97.419 E10.07806
G1 X76.554 Y97.212 E10.09268
G1 X77.262 Y97.082 E10.1073
G1 X78.077 Y97.03 E10.12389
G1 X79.597 Y97.03 E10.15477
G1 X79.597 Y89.51 E10.30754
G1 X79.637 Y88.791 E10.32217
G1 X79.756 Y88.082 E10.33678
G1 X79.954 Y87.39 E10.3514
G1 X80.227 Y86.724 E10.36602
G1 X80.572 Y86.092 E10.38065
G1 X80.985 Y85.503 E10.39526
G1 X81.461 Y84.963 E10.40989
G1 X81.993 Y84.479 E10.4245
G0 F4285.7 X82.461 Y84.722
G1 F1200 X83.036 Y84.337 E10.43856
G1 X83.653 Y84.022 E10.45263
G1 X84.301 Y83.779 E10.46669
G1 X84.974 Y83.612 E10.48078
G1 X85.769 Y83.51 E10.49706
G1 X147.057 Y83.51 E11.74215
G1 X147.748 Y83.55 E11.75621
G1 X148.431 Y83.669 E11.7703
G1 X149.094 Y83.867 E11.78435
G1 X149.731 Y84.139 E11.79842
G1 X150.332 Y84.483 E11.81249
G1 X150.89 Y84.894 E11.82657
G1 X151.396 Y85.366 E11.84063
G1 X151.845 Y85.894 E11.85471
G1 X152.23 Y86.469 E11.86877
G1 X152.545 Y87.086 E11.88284
G1 X152.788 Y87.734 E11.8969
G1 X152.955 Y88.407 E11.91099
G1 X153.057 Y89.202 E11.92727
G1 X153.057 Y97.51 E12.09605
G1 X155.057 Y97.51 E12.13668
G1 X155.748 Y97.55 E12.15074
G1 X156.431 Y97.669 E12.16483
G1 X157.094 Y97.867 E12.17889
G1 X157.731 Y98.139 E12.19296
G1 X158.332 Y98.483 E12.20702
G1 X158.89 Y98.894 E12.2211
G1 X159.396 Y99.366 E12.23516
G1 X159.845 Y99.894 E12.24924
G1 X160.23 Y100.469 E12.2633
G1 X160.545 Y101.086 E12.27737
G1 X160.788 Y101.734 E12.29143
G1 X160.955 Y102.407 E12.30552
G1 X161.057 Y103.202 E12.3218
G1 X161.057 Y111.49 E12.49018
G1 X161.017 Y112.181 E12.50424
G1 X160.898 Y112.864 E12.51832
G1 X160.7 Y113.527 E12.53238
G1 X160.428 Y114.164 E12.54645
G1 X160.084 Y114.765 E12.56052
G1 X159.673 Y115.323 E12.5746
G1 X159.201 Y115.829 E12.58866
G1 X158.673 Y116.278 E12.60274
G1 X158.098 Y116.663 E12.61679
G1 X157.481 Y116.978 E12.63087
G1 X156.833 Y117.221 E12.64493
G1 X156.16 Y117.388 E12.65901
G1 X155.365 Y117.49 E12.6753
G1 X153.057 Y117.49 E12.72219
G1 X153.057 Y125.49 E12.88471
G1 X153.017 Y126.181 E12.89877
G1 X152.898 Y126.864 E12.91286
G1 X152.7 Y127.527 E12.92691
G1 X152.428 Y128.164 E12.94098
G1 X152.084 Y128.765 E12.95505
G1 X151.673 Y129.323 E12.96913
G1 X151.201 Y129.829 E12.98319
G1 X150.673 Y130.278 E12.99727
G1 X150.098 Y130.663 E13.01133
G1 X149.481 Y130.978 E13.0254
G1 X148.833 Y131.221 E13.03946
G1 X148.16 Y131.388 E13.05355
G1 X147.365 Y131.49 E13.06983
G1 X86.077 Y131.49 E14.31492
G1 X85.386 Y131.45 E14.32898
G1 X84.703 Y131.331 E14.34307
G1 X84.04 Y131.133 E14.35712
G1 X83.403 Y130.861 E14.37119
G1 X82.802 Y130.517 E14.38526
G1 X82.244 Y130.106 E14.39934
G1 X81.738 Y129.634 E14.4134
G1 X81.289 Y129.106 E14.42748
G1 X80.904 Y128.531 E14.44154
G1 X80.589 Y127.914 E14.45561
G1 X80.346 Y127.266 E14.46967
G1 X80.179 Y126.593 E14.48376
G1 X80.077 Y125.798 E14.50004
G1 X80.077 Y117.49 E14.66882
G1 X78.077 Y117.49 E14.70945
G1 X77.386 Y117.45 E14.72351
G1 X76.703 Y117.331 E14.7376
G1 X76.04 Y117.133 E14.75166
G1 X75.403 Y116.861 E14.76573
G1 X74.802 Y116.517 E14.77979
G1 X74.244 Y116.106 E14.79387
G1 X73.738 Y115.634 E14.80793
G1 X73.289 Y115.106 E14.82201
G1 X72.904 Y114.531 E14.83607
G1 X72.589 Y113.914 E14.85014
G1 X72.346 Y113.266 E14.8642
G1 X72.179 Y112.593 E14.87829
G1 X72.077 Y111.798 E14.89457
G1 X72.077 Y103.51 E15.06295
G1 X72.117 Y102.819 E15.07701
G1 X72.236 Y102.136 E15.09109
G1 X72.434 Y101.473 E15.10515
G1 X72.706 Y100.836 E15.11922
G1 X73.05 Y100.235 E15.13329
G1 X73.461 Y99.677 E15.14737
G1 X73.933 Y99.171 E15.16143
G1 X74.461 Y98.722 E15.17551
G1 X75.036 Y98.337 E15.18956
G1 X75.653 Y98.022 E15.20364
G1 X76.301 Y97.779 E15.2177
G1 X76.974 Y97.612 E15.23178
G1 X77.769 Y97.51 E15.24807
G1 X80.077 Y97.51 E15.29496
G1 X80.077 Y89.51 E15.45748
G1 X80.117 Y88.819 E15.47154
G1 X80.236 Y88.136 E15.48563
G1 X80.434 Y87.473 E15.49968
G1 X80.706 Y86.836 E15.51375
G1 X81.05 Y86.235 E15.52782
G1 X81.461 Y85.677 E15.5419
G1 X81.933 Y85.171 E15.55596
G1 X82.461 Y84.722 E15.57004
G0 F4285.7 X82.926 Y84.978
G1 F1200 X83.493 Y84.632 E15.58353
G1 X84.098 Y84.357 E15.59703
G1 X84.731 Y84.157 E15.61052
G1 X85.384 Y84.034 E15.62402
G1 X86.077 Y83.99 E15.63813
G1 X147.057 Y83.99 E16.87696
G1 X147.72 Y84.03 E16.89045
G1 X148.373 Y84.149 E16.90394
G1 X149.008 Y84.346 E16.91744
G1 X149.614 Y84.618 E16.93094
G1 X150.183 Y84.96 E16.94443
G1 X150.707 Y85.369 E16.95793
G1 X151.178 Y85.837 E16.97142
G1 X151.589 Y86.359 E16.98492
G1 X151.935 Y86.926 E16.99841
G1 X152.21 Y87.531 E17.01191
G1 X152.41 Y88.164 E17.0254
G1 X152.533 Y88.817 E17.0389
G1 X152.577 Y89.51 E17.053
G1 X152.577 Y97.99 E17.22528
G1 X155.057 Y97.99 E17.27566
G1 X155.72 Y98.03 E17.28915
G1 X156.373 Y98.149 E17.30264
G1 X157.008 Y98.346 E17.31614
G1 X157.614 Y98.618 E17.32964
G1 X158.183 Y98.96 E17.34313
G1 X158.707 Y99.369 E17.35663
G1 X159.178 Y99.837 E17.37012
G1 X159.589 Y100.359 E17.38362
G1 X159.935 Y100.926 E17.39711
G1 X160.21 Y101.531 E17.41061
G1 X160.41 Y102.164 E17.4241
G1 X160.533 Y102.817 E17.4376
G1 X160.577 Y103.51 E17.4517
G1 X160.577 Y111.49 E17.61382
G1 X160.537 Y112.153 E17.62731
G1 X160.418 Y112.806 E17.6408
G1 X160.221 Y113.441 E17.65431
G1 X159.949 Y114.047 E17.6678
G1 X159.607 Y114.616 E17.68129
G1 X159.198 Y115.14 E17.69479
G1 X158.73 Y115.611 E17.70828
G1 X158.208 Y116.022 E17.72178
G1 X157.641 Y116.368 E17.73527
G1 X157.036 Y116.643 E17.74877
G1 X156.403 Y116.843 E17.76226
G1 X155.75 Y116.966 E17.77576
G1 X155.057 Y117.01 E17.78986
G1 X152.577 Y117.01 E17.84025
G1 X152.577 Y125.49 E18.01252
G1 X152.537 Y126.153 E18.02602
G1 X152.418 Y126.806 E18.0395
G1 X152.221 Y127.441 E18.05301
G1 X151.949 Y128.047 E18.0665
G1 X151.607 Y128.616 E18.07999
G1 X151.198 Y129.14 E18.09349
G1 X150.73 Y129.611 E18.10698
G1 X150.208 Y130.022 E18.12048
G1 X149.641 Y130.368 E18.13397
G1 X149.036 Y130.643 E18.14747
G1 X148.403 Y130.843 E18.16096
G1 X147.75 Y130.966 E18.17446
G1 X147.057 Y131.01 E18.18857
G1 X86.077 Y131.01 E19.4274
G1 X85.414 Y130.97 E19.44089
G1 X84.761 Y130.851 E19.45438
G1 X84.126 Y130.654 E19.46788
G1 X83.52 Y130.382 E19.48138
G1 X82.951 Y130.04 E19.49486
G1 X82.427 Y129.631 E19.50837
G1 X81.956 Y129.163 E19.52186
G1 X81.545 Y128.641 E19.53535
G1 X81.199 Y128.074 E19.54885
G1 X80.924 Y127.469 E19.56235
G1 X80.724 Y126.836 E19.57584
G1 X80.601 Y126.183 E19.58934
G1 X80.557 Y125.49 E19.60344
G1 X80.557 Y117.01 E19.77572
G1 X78.077 Y117.01 E19.8261
G1 X77.414 Y116.97 E19.83959
G1 X76.761 Y116.851 E19.85308
G1 X76.126 Y116.654 E19.86658
G1 X75.52 Y116.382 E19.88008
G1 X74.951 Y116.04 E19.89357
G1 X74.427 Y115.631 E19.90707
G1 X73.956 Y115.163 E19.92056
G1 X73.545 Y114.641 E19.93406
G1 X73.199 Y114.074 E19.94755
G1 X72.924 Y113.469 E19.96105
G1 X72.724 Y112.836 E19.97454
G1 X72.601 Y112.183 E19.98804
G1 X72.557 Y111.49 E20.00214
G1 X72.557 Y103.51 E20.16426
G1 X72.597 Y102.847 E20.17775
G1 X72.716 Y102.194 E20.19124
G1 X72.913 Y101.559 E20.20474
G1 X73.185 Y100.953 E20.21824
G1 X73.527 Y100.384 E20.23173
G1 X73.936 Y99.86 E20.24523
G1 X74.404 Y99.389 E20.25872
G1 X74.926 Y98.978 E20.27222
G1 X75.493 Y98.632 E20.28571
G1 X76.098 Y98.357 E20.29921
G1 X76.731 Y98.157 E20.3127
G1 X77.384 Y98.034 E20.3262
G1 X78.077 Y97.99 E20.3403
G1 X80.557 Y97.99 E20.39069
G1 X80.557 Y89.51 E20.56296
G1 X80.597 Y88.847 E20.57645
G1 X80.716 Y88.194 E20.58994
G1 X80.913 Y87.559 E20.60345
G1 X81.185 Y86.953 E20.61694
G1 X81.527 Y86.384 E20.63043
G1 X81.936 Y85.86 E20.64393
G1 X82.404 Y85.389 E20.65742
G1 X82.926 Y84.978 E20.67092
G0 F4285.7 X83.388 Y85.247
G1 F1200 X83.945 Y84.943 E20.68381
G1 X84.536 Y84.711 E20.69671
G1 X85.151 Y84.556 E20.70959
G1 X86.077 Y84.47 E20.72848
G1 X147.057 Y84.47 E21.96732
G1 X147.69 Y84.51 E21.9802
G1 X148.314 Y84.629 E21.99311
G1 X148.917 Y84.826 E22.006
G1 X149.491 Y85.097 E22.01889
G1 X150.026 Y85.438 E22.03178
G1 X150.515 Y85.843 E22.04468
G1 X150.948 Y86.307 E22.05757
G1 X151.32 Y86.821 E22.07046
G1 X151.624 Y87.378 E22.08335
G1 X151.856 Y87.969 E22.09625
G1 X152.011 Y88.584 E22.10914
G1 X152.097 Y89.51 E22.12803
G1 X152.097 Y98.47 E22.31006
G1 X155.057 Y98.47 E22.37019
G1 X155.69 Y98.51 E22.38307
G1 X156.314 Y98.629 E22.39598
G1 X156.917 Y98.826 E22.40887
G1 X157.491 Y99.097 E22.42176
G1 X158.026 Y99.438 E22.43465
G1 X158.515 Y99.843 E22.44755
G1 X158.948 Y100.307 E22.46044
G1 X159.32 Y100.821 E22.47333
G1 X159.624 Y101.378 E22.48622
G1 X159.856 Y101.969 E22.49912
G1 X160.011 Y102.584 E22.51201
G1 X160.097 Y103.51 E22.5309
