;START_OF_HEADER
;HEADER_VERSION:0.1
;FLAVOR:Griffin
;GENERATOR.NAME:Cura_SteamEngine
;GENERATOR.VERSION:5.2.1
;GENERATOR.BUILD_DATE:2022-10-19
;TARGET_MACHINE.NAME:Ultimaker 3
;EXTRUDER_TRAIN.0.INITIAL_TEMPERATURE:205
;EXTRUDER_TRAIN.0.MATERIAL.VOLUME_USED:11445
;EXTRUDER_TRAIN.0.MATERIAL.GUID:506c9f0d-e3aa-4bd4-b2d2-23e2425b1aa9
;EXTRUDER_TRAIN.0.NOZZLE.DIAMETER:0.4
;EXTRUDER_TRAIN.0.NOZZLE.NAME:AA 0.4
;BUILD_PLATE.INITIAL_TEMPERATURE:60
;PRINT.TIME:10447
;PRINT.GROUPS:1
;PRINT.SIZE.MIN.X:9
;PRINT.SIZE.MIN.Y:6
;PRINT.SIZE.MIN.Z:0.27
;PRINT.SIZE.MAX.X:175.017
;PRINT.SIZE.MAX.Y:143.45
;PRINT.SIZE.MAX.Z:3.97
;SLICE_UUID:d6f3104a-39c6-4bbb-a3b8-ea5df214ff6e
;END_OF_HEADER
;Generated with Cura_SteamEngine 5.2.1
T0
M82 ;absolute extrusion mode

G92 E0
M109 S205
G0 F15000 X9 Y6 Z2
G280
G1 F1500 E-6.5
;LAYER_COUNT:18
;LAYER:0
M107
M204 S1000
M205 X20 Y20
G1 F600 Z2.27
G0 F4285.7 X61.114 Y72.788 Z2.27
;TYPE:SKIRT
G1 F600 Z0.27
G1 F1500 E0
G1 F1200 X61.749 Y72.397 E0.01515
G1 X62.422 Y72.076 E0.0303
G1 X63.126 Y71.829 E0.04545
G1 X63.852 Y71.659 E0.0606
G1 X64.73 Y71.55 E0.07858
G1 X168.057 Y71.55 E2.17771
G1 X168.802 Y71.59 E2.19286
G1 X169.538 Y71.709 E2.20801
G1 X170.257 Y71.907 E2.22316
G1 X170.951 Y72.18 E2.23831
G1 X171.612 Y72.527 E2.25348
G1 X172.232 Y72.941 E2.26862
G1 X172.804 Y73.42 E2.28378
G1 X173.322 Y73.957 E2.29894
G1 X173.779 Y74.547 E2.3141
G1 X174.17 Y75.182 E2.32925
G1 X174.491 Y75.855 E2.34439
G1 X174.738 Y76.559 E2.35955
G1 X174.908 Y77.285 E2.3747
G1 X175.017 Y78.163 E2.39267
G1 X175.017 Y136.49 E3.57761
G1 X174.977 Y137.235 E3.59277
G1 X174.858 Y137.971 E3.60791
G1 X174.66 Y138.69 E3.62306
G1 X174.387 Y139.384 E3.63821
G1 X174.04 Y140.045 E3.65338
G1 X173.626 Y140.665 E3.66853
G1 X173.147 Y141.237 E3.68368
G1 X172.61 Y141.755 E3.69884
G1 X172.02 Y142.212 E3.714
G1 X171.385 Y142.603 E3.72915
G1 X170.712 Y142.924 E3.7443
G1 X170.008 Y143.171 E3.75946
G1 X169.282 Y143.341 E3.7746
G1 X168.404 Y143.45 E3.79258
G1 X65.077 Y143.45 E5.89171
G1 X64.332 Y143.41 E5.90686
G1 X63.596 Y143.291 E5.92201
G1 X62.877 Y143.093 E5.93716
G1 X62.183 Y142.82 E5.95231
G1 X61.522 Y142.473 E5.96748
G1 X60.902 Y142.059 E5.98262
G1 X60.33 Y141.58 E5.99778
G1 X59.812 Y141.043 E6.01294
G1 X59.355 Y140.453 E6.0281
G1 X58.964 Y139.818 E6.04325
G1 X58.643 Y139.145 E6.0584
G1 X58.396 Y138.441 E6.07355
G1 X58.226 Y137.715 E6.0887
G1 X58.117 Y136.837 E6.10667
G1 X58.117 Y78.51 E7.29161
G1 X58.157 Y77.765 E7.30677
G1 X58.276 Y77.029 E7.32191
G1 X58.474 Y76.31 E7.33706
G1 X58.747 Y75.616 E7.35222
G1 X59.094 Y74.955 E7.36738
G1 X59.508 Y74.335 E7.38253
G1 X59.987 Y73.763 E7.39768
G1 X60.524 Y73.245 E7.41284
G1 X61.114 Y72.788 E7.428
G0 F4285.7 X61.577 Y73.057
G1 F1200 X62.203 Y72.702 E7.44262
G1 X62.865 Y72.419 E7.45725
G1 X63.554 Y72.212 E7.47186
G1 X64.262 Y72.082 E7.48649
G1 X65.077 Y72.03 E7.50308
G1 X168.057 Y72.03 E9.59516
G1 X168.776 Y72.07 E9.60979
G1 X169.485 Y72.189 E9.62439
G1 X170.177 Y72.387 E9.63902
G1 X170.843 Y72.66 E9.65364
G1 X171.475 Y73.005 E9.66827
G1 X172.064 Y73.418 E9.68288
G1 X172.604 Y73.894 E9.6975
G1 X173.088 Y74.426 E9.71212
G1 X173.51 Y75.01 E9.72675
G1 X173.865 Y75.636 E9.74137
G1 X174.148 Y76.298 E9.756
G1 X174.355 Y76.987 E9.77061
G1 X174.485 Y77.695 E9.78524
G1 X174.537 Y78.51 E9.80183
G1 X174.537 Y136.49 E10.97972
G1 X174.497 Y137.209 E10.99435
G1 X174.378 Y137.918 E11.00895
G1 X174.18 Y138.61 E11.02357
G1 X173.907 Y139.276 E11.0382
G1 X173.562 Y139.908 E11.05282
G1 X173.149 Y140.497 E11.06744
G1 X172.673 Y141.037 E11.08206
G1 X172.141 Y141.521 E11.09667
G1 X171.557 Y141.943 E11.11131
G1 X170.931 Y142.298 E11.12593
G1 X170.269 Y142.581 E11.14056
G1 X169.58 Y142.788 E11.15517
G1 X168.872 Y142.918 E11.1698
G1 X168.057 Y142.97 E11.18639
G1 X65.077 Y142.97 E13.27847
G1 X64.358 Y142.93 E13.2931
G1 X63.649 Y142.811 E13.3077
G1 X62.957 Y142.613 E13.32232
G1 X62.291 Y142.34 E13.33695
G1 X61.659 Y141.995 E13.35157
G1 X61.07 Y141.582 E13.36619
G1 X60.53 Y141.106 E13.38081
G1 X60.046 Y140.574 E13.39542
G1 X59.624 Y139.99 E13.41006
G1 X59.269 Y139.364 E13.42468
G1 X58.986 Y138.702 E13.43931
G1 X58.779 Y138.013 E13.45392
G1 X58.649 Y137.305 E13.46855
G1 X58.597 Y136.49 E13.48514
G1 X58.597 Y78.51 E14.66302
G1 X58.637 Y77.791 E14.67765
G1 X58.756 Y77.082 E14.69226
G1 X58.954 Y76.39 E14.70688
G1 X59.227 Y75.724 E14.7215
G1 X59.572 Y75.092 E14.73613
G1 X59.985 Y74.503 E14.75074
G1 X60.461 Y73.963 E14.76537
G1 X60.993 Y73.479 E14.77998
G1 X61.577 Y73.057 E14.79462
G0 F4285.7 X62.036 Y73.337
G1 F1200 X62.653 Y73.022 E14.80869
G1 X63.301 Y72.779 E14.82275
G1 X63.974 Y72.612 E14.83684
G1 X64.769 Y72.51 E14.85312
G1 X168.057 Y72.51 E16.95146
G1 X168.748 Y72.55 E16.96552
G1 X169.431 Y72.669 E16.9796
G1 X170.094 Y72.867 E16.99366
G1 X170.731 Y73.139 E17.00773
G1 X171.332 Y73.483 E17.0218
G1 X171.89 Y73.894 E17.03588
G1 X172.396 Y74.366 E17.04994
G1 X172.845 Y74.894 E17.06402
G1 X173.23 Y75.469 E17.07808
G1 X173.545 Y76.086 E17.09215
G1 X173.788 Y76.734 E17.10621
G1 X173.955 Y77.407 E17.1203
G1 X174.057 Y78.202 E17.13658
G1 X174.057 Y136.49 E18.32072
G1 X174.017 Y137.181 E18.33478
G1 X173.898 Y137.864 E18.34887
G1 X173.7 Y138.527 E18.36293
G1 X173.428 Y139.164 E18.377
G1 X173.084 Y139.765 E18.39107
G1 X172.673 Y140.323 E18.40514
G1 X172.201 Y140.829 E18.4192
G1 X171.673 Y141.278 E18.43328
G1 X171.098 Y141.663 E18.44734
G1 X170.481 Y141.978 E18.46141
G1 X169.833 Y142.221 E18.47547
G1 X169.16 Y142.388 E18.48956
G1 X168.365 Y142.49 E18.50584
G1 X65.077 Y142.49 E20.60418
G1 X64.386 Y142.45 E20.61824
G1 X63.703 Y142.331 E20.63233
G1 X63.04 Y142.133 E20.64638
G1 X62.403 Y141.861 E20.66046
G1 X61.802 Y141.517 E20.67452
G1 X61.244 Y141.106 E20.6886
G1 X60.738 Y140.634 E20.70266
G1 X60.289 Y140.106 E20.71674
G1 X59.904 Y139.531 E20.7308
G1 X59.589 Y138.914 E20.74487
G1 X59.346 Y138.266 E20.75893
G1 X59.179 Y137.593 E20.77302
G1 X59.077 Y136.798 E20.7893
G1 X59.077 Y78.51 E21.97345
G1 X59.117 Y77.819 E21.98751
G1 X59.236 Y77.136 E22.00159
G1 X59.434 Y76.473 E22.01565
G1 X59.706 Y75.836 E22.02972
G1 X60.05 Y75.235 E22.04379
G1 X60.461 Y74.677 E22.05787
G1 X60.933 Y74.171 E22.07192
G1 X61.461 Y73.722 E22.08601
G1 X62.036 Y73.337 E22.10006
G0 F4285.7 X62.493 Y73.632
G1 F1200 X63.098 Y73.357 E22.11356
G1 X63.731 Y73.157 E22.12705
G1 X64.384 Y73.034 E22.14055
G1 X65.077 Y72.99 E22.15466
G1 X168.057 Y72.99 E24.24674
G1 X168.72 Y73.03 E24.26023
G1 X169.373 Y73.149 E24.27371
G1 X170.008 Y73.346 E24.28722
G1 X170.614 Y73.618 E24.30072
G1 X171.183 Y73.96 E24.3142
G1 X171.707 Y74.369 E24.32771
G1 X172.178 Y74.837 E24.3412
G1 X172.589 Y75.359 E24.35469
G1 X172.935 Y75.926 E24.36819
G1 X173.21 Y76.531 E24.38169
G1 X173.41 Y77.164 E24.39517
G1 X173.533 Y77.817 E24.40867
G1 X173.577 Y78.51 E24.42278
G1 X173.577 Y136.49 E25.60067
G1 X173.537 Y137.153 E25.61416
G1 X173.418 Y137.806 E25.62765
G1 X173.221 Y138.441 E25.64115
G1 X172.949 Y139.047 E25.65465
G1 X172.607 Y139.616 E25.66813
G1 X172.198 Y140.14 E25.68164
G1 X171.73 Y140.611 E25.69513
G1 X171.208 Y141.022 E25.70862
G1 X170.641 Y141.368 E25.72212
G1 X170.036 Y141.643 E25.73562
G1 X169.403 Y141.843 E25.74911
G1 X168.75 Y141.966 E25.7626
G1 X168.057 Y142.01 E25.77671
G1 X65.077 Y142.01 E27.86879
G1 X64.414 Y141.97 E27.88229
G1 X63.761 Y141.851 E27.89577
G1 X63.126 Y141.654 E27.90928
G1 X62.52 Y141.382 E27.92277
G1 X61.951 Y141.04 E27.93626
G1 X61.427 Y140.631 E27.94976
G1 X60.956 Y140.163 E27.96325
G1 X60.545 Y139.641 E27.97675
G1 X60.199 Y139.074 E27.99024
G1 X59.924 Y138.469 E28.00374
G1 X59.724 Y137.836 E28.01723
G1 X59.601 Y137.183 E28.03073
G1 X59.557 Y136.49 E28.04484
G1 X59.557 Y78.51 E29.22272
G1 X59.597 Y77.847 E29.23622
G1 X59.716 Y77.194 E29.2497
G1 X59.913 Y76.559 E29.26321
G1 X60.185 Y75.953 E29.2767
G1 X60.527 Y75.384 E29.29019
G1 X60.936 Y74.86 E29.30369
G1 X61.404 Y74.389 E29.31718
G1 X61.926 Y73.978 E29.33068
G1 X62.493 Y73.632 E29.34417
G0 F4285.7 X62.945 Y73.943
G1 F1200 X63.536 Y73.711 E29.35707
G1 X64.151 Y73.556 E29.36996
G1 X65.077 Y73.47 E29.38885
G1 X168.057 Y73.47 E31.48093
G1 X168.69 Y73.51 E31.49381
G1 X169.314 Y73.629 E31.50672
G1 X169.917 Y73.826 E31.51961
G1 X170.491 Y74.097 E31.5325
G1 X171.026 Y74.438 E31.54539
G1 X171.515 Y74.843 E31.55829
G1 X171.948 Y75.307 E31.57118
G1 X172.32 Y75.821 E31.58407
G1 X172.624 Y76.378 E31.59696
G1 X172.856 Y76.969 E31.60986
G1 X173.011 Y77.584 E31.62275
G1 X173.097 Y78.51 E31.64164
G1 X173.097 Y136.49 E32.81953
G1 X173.057 Y137.123 E32.83241
G1 X172.938 Y137.747 E32.84532
G1 X172.741 Y138.35 E32.85821
G1 X172.47 Y138.924 E32.8711
G1 X172.129 Y139.459 E32.88399
G1 X171.724 Y139.948 E32.89689
G1 X171.26 Y140.381 E32.90978
G1 X170.746 Y140.753 E32.92267
G1 X170.189 Y141.057 E32.93556
G1 X169.598 Y141.289 E32.94846
G1 X168.983 Y141.444 E32.96135
G1 X168.057 Y141.53 E32.98024
G1 X65.077 Y141.53 E35.07232
G1 X64.444 Y141.49 E35.0852
G1 X63.82 Y141.371 E35.09811
G1 X63.217 Y141.174 E35.111
G1 X62.643 Y140.903 E35.12389
G1 X62.108 Y140.562 E35.13678
G1 X61.619 Y140.157 E35.14968
G1 X61.186 Y139.693 E35.16257
G1 X60.814 Y139.179 E35.17546
G1 X60.51 Y138.622 E35.18835
G1 X60.278 Y138.031 E35.20125
G1 X60.123 Y137.416 E35.21414
G1 X60.037 Y136.49 E35.23303
G1 X60.037 Y78.51 E36.41092
G1 X60.077 Y77.877 E36.4238
G1 X60.196 Y77.253 E36.43671
G1 X60.393 Y76.65 E36.4496
G1 X60.664 Y76.076 E36.46249
G1 X61.005 Y75.541 E36.47538
G1 X61.41 Y75.052 E36.48828
G1 X61.874 Y74.619 E36.50117
G1 X62.388 Y74.247 E36.51406
G1 X62.945 Y73.943 E36.52695
G0 F4285.7 X63.392 Y74.273
G1 F1200 X63.966 Y74.087 E36.53921
G1 X64.56 Y73.979 E36.55148
G1 X65.077 Y73.95 E36.562
G1 X168.057 Y73.95 E38.65408
G1 X168.659 Y73.99 E38.66633
G1 X169.251 Y74.109 E38.6786
G1 X169.822 Y74.305 E38.69086
G1 X170.362 Y74.575 E38.70313
G1 X170.861 Y74.914 E38.71539
G1 X171.312 Y75.316 E38.72766
G1 X171.705 Y75.774 E38.73992
G1 X172.035 Y76.28 E38.75219
G1 X172.294 Y76.825 E38.76445
G1 X172.48 Y77.399 E38.77671
G1 X172.588 Y77.993 E38.78897
G1 X172.617 Y78.51 E38.79949
G1 X172.617 Y136.49 E39.97738
G1 X172.577 Y137.092 E39.98964
G1 X172.458 Y137.684 E40.0019
G1 X172.262 Y138.255 E40.01417
G1 X171.992 Y138.795 E40.02643
G1 X171.653 Y139.294 E40.03869
G1 X171.251 Y139.745 E40.05096
G1 X170.793 Y140.138 E40.06322
G1 X170.287 Y140.468 E40.0755
G1 X169.742 Y140.727 E40.08775
G1 X169.168 Y140.913 E40.10001
G1 X168.574 Y141.021 E40.11228
G1 X168.057 Y141.05 E40.1228
G1 X65.077 Y141.05 E42.21488
G1 X64.475 Y141.01 E42.22713
G1 X63.883 Y140.891 E42.2394
G1 X63.312 Y140.695 E42.25167
G1 X62.772 Y140.425 E42.26393
G1 X62.273 Y140.086 E42.27619
G1 X61.822 Y139.684 E42.28846
G1 X61.429 Y139.226 E42.30072
G1 X61.099 Y138.72 E42.31299
G1 X60.84 Y138.175 E42.32525
G1 X60.654 Y137.601 E42.33751
G1 X60.546 Y137.007 E42.34977
G1 X60.517 Y136.49 E42.36029
G1 X60.517 Y78.51 E43.53818
G1 X60.557 Y77.908 E43.55044
G1 X60.676 Y77.316 E43.56271
G1 X60.872 Y76.745 E43.57497
G1 X61.142 Y76.205 E43.58724
G1 X61.481 Y75.706 E43.59949
G1 X61.883 Y75.255 E43.61176
G1 X62.341 Y74.862 E43.62402
G1 X62.847 Y74.532 E43.6363
G1 X63.392 Y74.273 E43.64856
G0 F4285.7 X63.831 Y74.625
G1 F1200 X64.386 Y74.489 E43.66016
G1 X65.077 Y74.43 E43.67425
G1 X168.057 Y74.43 E45.76633
G1 X168.627 Y74.47 E45.77794
G1 X169.185 Y74.589 E45.78953
G1 X169.721 Y74.785 E45.80113
G1 X170.225 Y75.054 E45.81273
G1 X170.686 Y75.39 E45.82432
G1 X171.096 Y75.788 E45.83593
G1 X171.446 Y76.239 E45.84753
G1 X171.73 Y76.734 E45.85912
G1 X171.942 Y77.264 E45.87072
G1 X172.078 Y77.819 E45.88233
G1 X172.137 Y78.51 E45.89642
G1 X172.137 Y136.49 E47.0743
G1 X172.097 Y137.06 E47.08591
G1 X171.978 Y137.618 E47.0975
G1 X171.782 Y138.154 E47.1091
G1 X171.513 Y138.658 E47.1207
G1 X171.177 Y139.119 E47.13229
G1 X170.779 Y139.529 E47.1439
G1 X170.328 Y139.879 E47.1555
G1 X169.833 Y140.163 E47.16709
G1 X169.303 Y140.375 E47.17869
G1 X168.748 Y140.511 E47.1903
G1 X168.057 Y140.57 E47.20438
G1 X65.077 Y140.57 E49.29646
G1 X64.507 Y140.53 E49.30807
G1 X63.949 Y140.411 E49.31966
G1 X63.413 Y140.215 E49.33126
G1 X62.909 Y139.946 E49.34286
G1 X62.448 Y139.61 E49.35445
G1 X62.038 Y139.212 E49.36606
G1 X61.688 Y138.761 E49.37766
G1 X61.404 Y138.266 E49.38925
G1 X61.192 Y137.736 E49.40085
G1 X61.056 Y137.181 E49.41246
G1 X60.997 Y136.49 E49.42655
G1 X60.997 Y78.51 E50.60443
G1 X61.037 Y77.94 E50.61604
G1 X61.156 Y77.382 E50.62763
G1 X61.352 Y76.846 E50.63923
G1 X61.621 Y76.342 E50.65083
G1 X61.957 Y75.881 E50.66242
G1 X62.355 Y75.471 E50.67403
G1 X62.806 Y75.121 E50.68563
G1 X63.301 Y74.837 E50.69722
G1 X63.831 Y74.625 E50.70882
G0 F4285.7 X63.749 Y75.164
G1 F1200 X64.26 Y75.004 E50.7197
G1 X64.86 Y74.91 E50.73203
G1 X168.057 Y74.91 E52.82852
G1 X168.592 Y74.95 E52.83942
G1 X169.115 Y75.069 E52.85032
G1 X169.614 Y75.264 E52.8612
G1 X170.079 Y75.532 E52.87211
G1 X170.499 Y75.865 E52.883
G1 X170.865 Y76.257 E52.89389
G1 X171.168 Y76.699 E52.90478
G1 X171.403 Y77.182 E52.91569
G1 X171.563 Y77.693 E52.92657
G1 X171.657 Y78.293 E52.93891
G1 X171.657 Y136.49 E54.1212
G1 X171.617 Y137.025 E54.1321
G1 X171.498 Y137.548 E54.143
G1 X171.303 Y138.047 E54.15388
G1 X171.035 Y138.512 E54.16478
G1 X170.702 Y138.932 E54.17567
G1 X170.31 Y139.298 E54.18657
G1 X169.868 Y139.601 E54.19745
G1 X169.385 Y139.836 E54.20837
G1 X168.874 Y139.996 E54.21924
G1 X168.274 Y140.09 E54.23158
G1 X65.077 Y140.09 E56.32807
G1 X64.542 Y140.05 E56.33897
G1 X64.019 Y139.931 E56.34987
G1 X63.52 Y139.736 E56.36075
G1 X63.055 Y139.468 E56.37165
G1 X62.635 Y139.135 E56.38254
G1 X62.269 Y138.743 E56.39344
G1 X61.966 Y138.301 E56.40432
G1 X61.731 Y137.818 E56.41524
G1 X61.571 Y137.307 E56.42611
G1 X61.477 Y136.707 E56.43845
G1 X61.477 Y78.51 E57.62075
G1 X61.517 Y77.975 E57.63165
G1 X61.636 Y77.452 E57.64254
G1 X61.831 Y76.953 E57.65343
G1 X62.099 Y76.488 E57.66433
G1 X62.432 Y76.068 E57.67522
G1 X62.824 Y75.702 E57.68612
G1 X63.266 Y75.399 E57.697
G1 X63.749 Y75.164 E57.70791
G0 F4285.7 X63.721 Y75.7
G1 F1200 X64.187 Y75.52 E57.71806
G1 X64.797 Y75.39 E57.73073
G1 X168.392 Y75.39 E59.83531
G1 X169.039 Y75.549 E59.84884
G1 X169.499 Y75.743 E59.85898
G1 X170.297 Y76.338 E59.87921
G1 X170.615 Y76.723 E59.88935
G1 X170.867 Y77.154 E59.89949
G1 X171.047 Y77.62 E59.90964
G1 X171.177 Y78.23 E59.92231
G1 X171.177 Y136.825 E61.11269
G1 X171.018 Y137.472 E61.12623
G1 X170.824 Y137.932 E61.13637
G1 X170.229 Y138.73 E61.15659
G1 X169.844 Y139.048 E61.16674
G1 X169.413 Y139.3 E61.17688
G1 X168.947 Y139.48 E61.18703
G1 X168.337 Y139.61 E61.1997
G1 X64.742 Y139.61 E63.30427
G1 X64.095 Y139.451 E63.31781
G1 X63.635 Y139.257 E63.32795
G1 X62.837 Y138.662 E63.34817
G1 X62.519 Y138.277 E63.35832
G1 X62.267 Y137.846 E63.36846
G1 X62.087 Y137.38 E63.37861
G1 X61.957 Y136.77 E63.39128
G1 X61.957 Y78.175 E64.58166
G1 X62.116 Y77.528 E64.5952
G1 X62.31 Y77.068 E64.60534
G1 X62.905 Y76.27 E64.62556
G1 X63.29 Y75.952 E64.6357
G1 X63.721 Y75.7 E64.64585
G0 F4285.7 X64.167 Y76.032
G1 F1200 X64.61 Y75.912 E64.65517
G1 X65.077 Y75.87 E64.6647
G1 X168.363 Y75.87 E66.76299
G1 X168.958 Y76.028 E66.7755
G1 X169.751 Y76.485 E66.79409
G1 X170.076 Y76.809 E66.80342
G1 X170.535 Y77.6 E66.822
G1 X170.655 Y78.043 E66.83132
G1 X170.697 Y78.51 E66.84085
G1 X170.697 Y136.796 E68.02495
G1 X170.539 Y137.391 E68.03746
G1 X170.082 Y138.184 E68.05605
G1 X169.758 Y138.509 E68.06537
G1 X168.967 Y138.968 E68.08395
G1 X168.524 Y139.088 E68.09328
G1 X168.057 Y139.13 E68.1028
G1 X64.771 Y139.13 E70.2011
G1 X64.176 Y138.972 E70.2136
G1 X63.383 Y138.515 E70.2322
G1 X63.058 Y138.191 E70.24152
G1 X62.599 Y137.4 E70.2601
G1 X62.479 Y136.957 E70.26942
G1 X62.437 Y136.49 E70.27895
G1 X62.437 Y78.204 E71.46305
G1 X62.595 Y77.609 E71.47556
G1 X63.052 Y76.816 E71.49415
G1 X63.376 Y76.491 E71.50348
G1 X64.167 Y76.032 E71.52206
G0 F4285.7 X64.599 Y76.404
G1 F1200 X65.077 Y76.35 E71.53183
G1 X168.335 Y76.35 E73.62956
G1 X168.868 Y76.508 E73.64085
G1 X169.561 Y76.959 E73.65765
G1 X169.83 Y77.276 E73.66609
G1 X170.163 Y78.032 E73.68288
G1 X170.217 Y78.51 E73.69265
G1 X170.217 Y136.768 E74.87618
G1 X170.059 Y137.301 E74.88748
G1 X169.608 Y137.994 E74.90427
G1 X169.291 Y138.263 E74.91272
G1 X168.535 Y138.596 E74.9295
G1 X168.057 Y138.65 E74.93928
